svg/coffin.svg

<svg xmlns="http://www.w3.org/2000/svg" viewBox="0 0 24 24"><path d="M8 22 5 8l3-6h8l3 6-3 14zm3-16v2H9v2h2v5h2v-5h2V8h-2V6z"/></svg>

<?xml version="1.0" encoding="UTF-8"?><!DOCTYPE svg PUBLIC "-//W3C//DTD SVG 1.1//EN" "http://www.w3.org/Graphics/SVG/1.1/DTD/svg11.dtd"><svg xmlns="http://www.w3.org/2000/svg" xmlns:xlink="http://www.w3.org/1999/xlink" version="1.1" id="mdi-coffin" width="24" height="24" viewBox="0 0 24 24"><path d="M8,22L5,8L8,2H16L19,8L16,22H8M11,6V8H9V10H11V15H13V10H15V8H13V6H11Z" /></svg>
